X:4514
L:1/8
M:3/4
K:Eb
 Bc/d/ | e2 e>g g/f/e/d/ | e>B G2 EG/B/ | e2 ef/g/ f>e | e2 d2 e>d | c3 d/e/ f/e/d/c/ | B>AG Be>B | 
 d/c/B/A/ G2 TF2 | E4 || B>A | G<FEFG=A | B>=ABcd B | e>d ef/g/ f>e | e2 d2 e>d | 
 c3 d/e/ f/e/d/c/ | B>AG Be>B | d/c/B/A/ G2 TF2 | E4 ||

